!!!SOCIAL_FUNCTION:	begging dance songs
!!!PDT:	1913
!!!OTL: No_117_My_Travels.krn
!!!REG: Great_Lakes
!!!LANG: Non-Tone
!!!LING_GROUP: Algonquin
**kern	**kern
*staff2	*staff1
=1-	=1-
*clefF4	*clefF4
*k[b-e-a-]	*k[b-e-a-]
*M2/4	*M2/4
12GG^/	8f\L
12r	.
.	8f\J
12GG/	.
12GG^/	8f\L
12r	.
.	8e-\J
12GG/	.
=2||	=2||
*M3/4	*M3/4
2.r	8.e-\L
.	16e-\Jk
.	2e-\
=3||	=3||
*M2/4	*M2/4
2r	16e-\LK
.	8.e-\J
.	16e-\LK
.	8c\
.	16e-\Jk
=4	=4
2r	8c\L
.	8B-\J
.	8.B-\L
.	16B-\Jk
=5||	=5||
*M3/4	*M3/4
2.r	2.B-\
=6||	=6||
*M2/4	*M2/4
2r	8.e-\L
.	16e-\Jk
.	8.e-\L
.	16e-\Jk
=7||	=7||
*M3/4	*M3/4
2.r	16e-\LK
.	8.B-\J
.	2B-\
=8||	=8||
*M2/4	*M2/4
2r	16e-\LK
.	8.G\J
.	(16G\LK
.	8F\)
.	16G\Jk
=9	=9
2r	16F\LK
.	8.E-\J
.	8.E-\L
.	16E-\Jk
=10	=10
2r	2E-\
=11	=11
2r	4G\
.	16G\LL
.	16G\
.	16.F\
.	32G\JJk
=12	=12
2r	8F\L
.	8E-\J
.	8.E-\L
.	16E-\Jk
=13	=13
2r	2E-\
=14||	=14||
*M3/4	*M3/4
2.r	4E-\
.	16E-/LK
.	8.C/J
.	8E-/L
.	8C/J
=15||	=15||
*M2/4	*M2/4
2r	8.BB-/L
.	16BB-/Jk
.	(4BB-/
=16	=16
2r	2BB-/)
==	==
*-	*-
